poster/live-grid/static/logos/emsoc.svg

<?xml version="1.0" encoding="UTF-8" standalone="no"?>
<svg
   xmlns:dc="http://purl.org/dc/elements/1.1/"
   xmlns:cc="http://creativecommons.org/ns#"
   xmlns:rdf="http://www.w3.org/1999/02/22-rdf-syntax-ns#"
   xmlns:svg="http://www.w3.org/2000/svg"
   xmlns="http://www.w3.org/2000/svg"
   xmlns:sodipodi="http://sodipodi.sourceforge.net/DTD/sodipodi-0.dtd"
   xmlns:inkscape="http://www.inkscape.org/namespaces/inkscape"
   width="126pt"
   height="134pt"
   viewBox="0 0 126 134"
   version="1.1"
   id="svg5086"
   inkscape:version="0.48.2 r9819"
   sodipodi:docname="emsoc.svg">
  <metadata
     id="metadata5144">
    <rdf:RDF>
      <cc:Work
         rdf:about="">
        <dc:format>image/svg+xml</dc:format>
        <dc:type
           rdf:resource="http://purl.org/dc/dcmitype/StillImage" />
        <dc:title />
      </cc:Work>
    </rdf:RDF>
  </metadata>
  <defs
     id="defs5142">
    <inkscape:path-effect
       effect="spiro"
       id="path-effect6363"
       is_visible="true" />
  </defs>
  <sodipodi:namedview
     pagecolor="#ffffff"
     bordercolor="#666666"
     borderopacity="1"
     objecttolerance="10"
     gridtolerance="10"
     guidetolerance="10"
     inkscape:pageopacity="0"
     inkscape:pageshadow="2"
     inkscape:window-width="753"
     inkscape:window-height="703"
     id="namedview5140"
     showgrid="false"
     inkscape:zoom="4.4241666"
     inkscape:cx="87.808948"
     inkscape:cy="145.08227"
     inkscape:window-x="0"
     inkscape:window-y="26"
     inkscape:window-maximized="0"
     inkscape:current-layer="svg5086" />
  <path
     style="fill:#ffffff;fill-opacity:1;stroke:none"
     d="M 1.84375 2.625 L 1.84375 164.28125 L 134.40625 164.28125 L 134.40625 19.8125 C 141.22363 21.45868 149.90625 30.9375 149.90625 30.9375 C 149.90625 30.9375 153.44323 22.707299 155.28125 19.03125 C 145.23509 11.018241 137.61081 7.5010853 134.40625 6.25 L 134.40625 2.625 L 1.84375 2.625 z "
     transform="scale(0.8,0.8)"
     id="path6361" />
  <path
     sodipodi:nodetypes="ccccccccccccccccccccccccsccccccccccccccccccccccccccccccccccccccccccccccccccccccccccccccccccccccccccccccccccccccccccccccccccccccccccccccccccccccccccccccccccccccccccccccccccccc"
     style="fill:#000000"
     inkscape:connector-curvature="0"
     id="path5091"
     d="M 0.86,1.91 C 35.56,1.81 108.82774,1.89 108.82774,1.89 l -0.0501,3.3393034 c 0,0 2.64732,1.2506966 4.09232,1.9306966 4.43,2.13 8.32,5.17 12.09,8.29 -1.65,3.42 -3.37,6.8 -5.07,10.2 -3.5,-3.13 -6.63,-7.84 -11.59,-8.49 -0.95911,37.938357 -0.24,114.57 -0.24,114.57 L 0.88,131.69 c 0,0 -0.0859861,-89.394222 -0.02,-129.78 m 95.61,2.77 c -9.06,1.99 -13.49,10.96 -17.29,18.5 -2.51,-1.24 -5,-2.49 -7.46,-3.81 -1.39,2.51 -2.73,5.05 -4.01,7.62 -1.57,0.21 -3.14,0.42 -4.71,0.61 5.35,-6.94 10.52,-14.02 15.95,-20.9 3.88,0.06 6.935318,0.06 10.815318,-0.03 0,0 0.708268,-0.7629375 1.930457,-1.1 C 77.095775,5.685 2.82,5.68 2.82,5.68 2.6100977,46.592156 2.85,128.37 2.85,128.37 l 41.427519,0.17393 0.575401,-1.432 -1.865248,-0.0613 c 0,0 -0.08267,-10.04563 -0.09767,-11.09063 -1.795,-0.705 -3.85,-1.5175 -5.89625,-1.85875 C 34.9475,113.76 32.91,113.89 31.15,115.07 c -1.55,3.86 -3.571794,12.24573 -3.571794,12.24573 L 8.88,127.32 c 0,0 8.12,-17.69 12.23,-26.51 2.05,1.48 4.16,2.93 6.54,3.86 -2.09,-2.51 -4.78,-4.51 -7.73,-5.87 -3.97,-0.48 -7.99,-0.21 -11.98,-0.51 -0.04,0.59 -0.13,1.79 -0.18,2.38 -1.23,1.49 -3.9412375,4.66083 -3.9412375,4.66083 L 3.9,99.7 c 0,0 2.7,-0.92 3.95,-1.6 C 6.93,98.08 5.1,98.04 4.18,98.02 3.94,82.67 3.6,67.32 3.77,51.96 c 4.45,-0.18 8.92,-0.27 13.37,-0.56 1.38,-0.16 2.97,-0.03 4.05,-1.09 3.73,-3.01 7.4,-6.11 11.35,-8.83 4.33,-3.2 10.4,-2.62 14.45,-6.34 3.98,-2.7 7.8,-6.88 13.04,-6.41 5.69,0.04 11.33,-0.77 16.96,-1.48 2.71,1.52 5.62,2.82 7.71,5.2 2.43,3.08 7.27,0.18 9.91,3.02 1.63,2.07 2.46,4.63 3.07,7.16 1.72,0.58 3.41,1.23 5.04,2.03 1.51,-2.41 2.8,-4.94 3.93,-7.55 -4.65,-2.37 -9.31,-4.72 -13.92,-7.17 2.76,-5.45 5.23,-12.56 11.72,-14.43 6.39,-0.81 10.98,4.74 15.37,8.48 1.31,-2.74 2.69,-5.46 4.08,-8.17 C 116.31,9.49 106.88,2.87 96.47,4.68 m -2.16,24.14 c 3.44,-1.67 10.22,-5.17 10.22,-5.17 L 104.34248,35.543817 105.05,35.93 c 0,0 0.34,-13.32 0.42,-19.96 -5.94,1.74 -8.75,7.69 -11.16,12.85 M 83.74,44.57 c 0.65,-0.01 1.93,-0.04 2.58,-0.05 1.33,2.44 2.02,5.15 2.95,7.76 -0.25,0.44 -0.73,1.31 -0.97,1.75 1.07,-0.12 2.09,-0.42 3.06,-0.9 -2.56,-6.08 -4.32,-12.51 -7.38,-18.36 -2.08,3 -0.81,6.55 -0.24,9.8 M 68.8,39.76 c -1.72,0.19 -3.44,0.43 -5.12,0.83 -2.21,-0.25 -4.43,-0.54 -6.64,-0.77 2.24,2.51 4.7,4.8 7.22,7.04 1.9,-0.12 3.8,-0.26 5.71,-0.41 -3.26,1.83 -4.22,5.55 -6.21,8.44 0.38,0.52 0.76,1.03 1.15,1.54 0.02,-3.23 3.77,-2.97 5.98,-3.32 -0.4,-2.25 -0.56,-4.52 -0.61,-6.79 1.26,-0.58 2.51,-1.18 3.75,-1.77 1.33,3.49 3.02,6.93 5.93,9.38 0.87,-0.01 2.63,-0.02 3.51,-0.03 -2.93,-1.34 -5.62,-3.43 -6.76,-6.55 -1.31,-3.85 -3.44,-7.3 -5.4,-10.84 -0.84,1.08 -1.68,2.16 -2.51,3.25 m 23.32,0.07 c 2.89,3.29 -1.31,8.59 2.87,10.87 0.81,-1.21 1.68,-2.4 2.35,-3.7 -0.63,-3.02 -1.81,-5.9 -3.1,-8.69 -1.03,-0.68 -1.43,1.05 -2.12,1.52 m 8.81,4.62 c -2.04,2.89 -3.35,6.24 -4.78,9.46 -0.03,2.37 0.51,4.7 0.92,7.03 -1.58,2.79 -3.46,5.43 -4.78,8.36 -0.87,3.79 0.25,7.82 -0.83,11.57 -1.78,2.28 -4.65,3.2 -7.12,4.52 0.17,2.23 0.37,4.47 0.23,6.71 0.18,2.06 -1.97,2.99 -3.25,4.17 -4.06,2.97 -7.69,6.71 -12.4,8.65 -4.76,0.55 -9.57,0.78 -14.23,2.05 2.03,6.67 4.89,20.28 4.89,20.28 L 54.252576,127.3444 53.72,128.27 c 0,0 34.55,0.19 51.82,0.14 0.17,-28.62 0.05,-86.367269 0.05,-86.367269 l -2.08324,3.627838 M 48.58,45.68 c -5.88,3.21 -11.21,7.28 -16.32,11.61 -2.91,3.09 -5.61,7.09 -5.25,11.52 3.18,2.94 8.01,1.81 11.92,1.47 5.13,-1.03 11.12,-1.34 14.8,-5.58 2.97,-3.06 6.06,-6.17 8.04,-10 1.82,-2.93 -0.12,-6.9 -2.8,-8.56 -3.31,-1.1 -7,-1.3 -10.39,-0.46 m 43.89,7.12 c 0.32,2.78 1.43,5.58 0.85,8.37 -3.07,0.45 -6.12,-0.8 -9.22,-0.58 -6.73,0.35 -13.68,1.95 -20.25,-0.43 0.25,1.05 0.76,3.15 1.02,4.2 4.37,-0.31 8.74,-0.57 13.12,-0.59 4.52,0 9.28,-0.44 13.44,1.73 1.37,-1.61 3.18,-3.13 3.6,-5.31 0.05,-2.67 0.19,-5.97 -2.56,-7.39 M 62.1,57.45 c -0.66,3.38 -2.6,6.26 -4.11,9.29 -4.52,8.96 -9.12,17.88 -13.62,26.84 -1.17,2.23 -2.29,4.64 -4.35,6.19 -4.29,3.38 -10.42,3.04 -14.46,6.84 -5.92,4.81 -5.12,15.14 1.32,19.15 1.2,-3.8 1.74,-7.82 3.43,-11.44 1.12,-1.41 3.08,-1.23 4.68,-1.29 4.48,-0.19 9.11,1.62 12.06,5.02 0.54,4.51 -1.87,8.79 -2.47,13.23 7.22,0.19 13.39,-7.25 11.58,-14.29 -0.4,-4.11 -3.73,-8.32 -1.52,-12.35 2.51,-4.92 4.93,-9.87 7.63,-14.69 C 59.59,88.88 56.13,88 55.15,84.9 54.05,81.79 55.56,78.4 58.26,76.67 57.45,71.86 57.6,65.28 63.33,63.75 63.32,62.28 63.35,60.8 63.41,59.32 62.98,58.69 62.54,58.07 62.1,57.45 m 25.54,8.03 c 0.05,2.24 0.17,4.47 0.27,6.71 C 84,71.87 80.09,70.71 76.16,71.4 c -4.78,0.64 -9.84,1.55 -14.52,-0.04 -1.09,-1.62 -0.08,-3.93 -0.52,-5.74 -2.26,2.76 -2.99,6.73 -1.84,10.09 0.68,1.39 2.38,1.31 3.69,1.38 7.38,-0.19 14.63,2.18 21.09,5.6 2.68,-0.98 6.61,-2.17 6.49,-5.71 -0.07,-3.83 0.81,-9.1 -2.91,-11.5 M 5.19,87.2 c -0.88,2.1 -0.34,4.36 -0.03,6.51 6.66,0.15 13.25,1.52 19.49,3.82 2.71,1.05 4.63,3.51 7.44,4.37 3.85,-0.55 7.72,-2.5 9.8,-5.88 1.46,-2.36 2.64,-4.87 4.02,-7.27 -0.45,-0.12 -1.36,-0.35 -1.82,-0.47 -0.52,-3.63 0.25,-7.54 -1.32,-10.95 -2.86,-0.66 -5.74,0.69 -7.7,2.73 -3.31,3.42 -5.05,7.95 -6.71,12.32 -0.91,-1.52 -1.83,-3.02 -2.74,-4.53 -1.28,0.8 -2.55,1.63 -3.81,2.46 C 19.29,83.46 17.15,76.34 13.2,70.15 8.99,74.98 7.19,81.25 5.19,87.2 m 50.39,-5.16 c 0.32,1.81 0.61,3.89 2.34,4.93 5.56,3.52 13.14,1.49 18.17,6.25 -3.57,1.27 -7.29,2.39 -11.11,2.34 -1.6,0.15 -3.46,-0.84 -4.88,0.22 -0.95,2.47 -1.47,5.08 -2.19,7.63 5.97,-0.21 12.61,-0.07 17.44,-4.17 5.05,-3.14 7.09,-9.48 6.76,-15.17 -1.12,-1.04 -2.42,-1.84 -3.67,-2.69 0.55,1.91 -0.24,3.69 -2.39,3.65 -3.26,0.65 -6.4,-0.58 -9.3,-1.9 -3.49,-1.63 -7.44,-1.31 -11.17,-1.09 z" />
  <path
     style="fill:#000000"
     inkscape:connector-curvature="0"
     id="path5093"
     d="M 3.83,6.75 C 8.27,6.74 12.72,6.76 17.17,6.68 22.68,17.59 28.22,28.49 33.44,39.54 32.29,40.28 31.14,41.02 30,41.77 21.26,31.15 12.59,20.48 3.79,9.91 3.8,9.12 3.82,7.54 3.83,6.75 z" />
  <path
     style="fill:#000000"
     inkscape:connector-curvature="0"
     id="path5095"
     d="m 28.94,6.75 c 3.78,-0.01 7.57,-0.01 11.36,-0.03 0.55,10.05 0.48,20.13 0.9,30.19 -1.39,0.38 -2.78,0.76 -4.16,1.14 -2.68,-10.44 -5.38,-20.87 -8.1,-31.3 z" />
  <path
     sodipodi:nodetypes="ccccc"
     style="fill:#000000"
     inkscape:connector-curvature="0"
     id="path5097"
     d="M 51.523931,6.7803435 63.85,6.74 c 0,0 -5.81,12.94 -8.7,19.41 -1.47,4.1 -6.02,5.52 -9.18,7.99 1.95,-8.98 5.553931,-27.3596565 5.553931,-27.3596565 z" />
  <path
     style="fill:#000000"
     inkscape:connector-curvature="0"
     id="path5099"
     d="m 3.82,26.64 c 7.81,5.68 15.22,11.88 22.95,17.67 -1.28,0.99 -2.56,1.99 -3.84,2.97 -6.38,-3.03 -12.91,-5.75 -19.21,-8.97 0.11,-3.89 0.1,-7.78 0.1,-11.67 z" />
  <path
     sodipodi:nodetypes="cccc"
     style="fill:#000000"
     inkscape:connector-curvature="0"
     id="path5101"
     d="m 3.77,47.89 c 3.09,0.57 6.17,1.16 9.2,1.98 C 9.99,50.45 6.7801718,50.59 3.7501718,50.76 3.7201718,50.04 3.81,48.61 3.77,47.89 z" />
  <path
     style="fill:#000000"
     inkscape:connector-curvature="0"
     id="path5103"
     d="m 97.35,54.59 c 2.4,-0.06 4.81,-0.12 7.21,-0.14 -0.04,4.82 0.01,9.65 -0.11,14.48 -3.15,-0.72 -6.31,-1.37 -9.47,-2 1.11,-1.92 2.42,-3.76 3.12,-5.88 -0.03,-2.17 -0.46,-4.32 -0.75,-6.46 z" />
  <path
     style="fill:#000000"
     inkscape:connector-curvature="0"
     id="path5105"
     d="m 93.43,79.36 c 3.69,1.6 7.33,3.3 11,4.94 0.21,6.56 0.07,13.12 0.09,19.68 -6.21,-4.74 -12.36,-9.56 -18.62,-14.25 -0.08,-1.22 -0.15,-2.44 -0.23,-3.65 3.13,-1.49 6.78,-3.01 7.76,-6.72 z" />
  <path
     style="fill:#000000"
     inkscape:connector-curvature="0"
     id="path5107"
     d="m 67.24,106.73 c 4.34,-1.17 7.83,-4.04 11.33,-6.7 7.58,9.09 15.17,18.19 22.75,27.29 -7.79,0.06 -15.57,-0.02 -23.35,0.04 -3.75,-6.78 -6.88,-13.89 -10.73,-20.63 z" />
</svg>

<?xml version="1.0" encoding="UTF-8" standalone="no"?>
<svg
   xmlns:dc="http://purl.org/dc/elements/1.1/"
   xmlns:cc="http://creativecommons.org/ns#"
   xmlns:rdf="http://www.w3.org/1999/02/22-rdf-syntax-ns#"
   xmlns:svg="http://www.w3.org/2000/svg"
   xmlns="http://www.w3.org/2000/svg"
   xmlns:sodipodi="http://sodipodi.sourceforge.net/DTD/sodipodi-0.dtd"
   xmlns:inkscape="http://www.inkscape.org/namespaces/inkscape"
   width="126pt"
   height="134pt"
   viewBox="0 0 126 134"
   version="1.1"
   id="svg5086"
   inkscape:version="0.48.2 r9819"
   sodipodi:docname="emsoc.svg">
  <metadata
     id="metadata5144">
    <rdf:RDF>
      <cc:Work
         rdf:about="">
        <dc:format>image/svg+xml</dc:format>
        <dc:type
           rdf:resource="http://purl.org/dc/dcmitype/StillImage" />
        <dc:title />
      </cc:Work>
    </rdf:RDF>
  </metadata>
  <defs
     id="defs5142">
    <inkscape:path-effect
       effect="spiro"
       id="path-effect6363"
       is_visible="true" />
  </defs>
  <sodipodi:namedview
     pagecolor="#ffffff"
     bordercolor="#666666"
     borderopacity="1"
     objecttolerance="10"
     gridtolerance="10"
     guidetolerance="10"
     inkscape:pageopacity="0"
     inkscape:pageshadow="2"
     inkscape:window-width="753"
     inkscape:window-height="703"
     id="namedview5140"
     showgrid="false"
     inkscape:zoom="4.4241666"
     inkscape:cx="25.379519"
     inkscape:cy="155.60539"
     inkscape:window-x="0"
     inkscape:window-y="26"
     inkscape:window-maximized="0"
     inkscape:current-layer="svg5086" />
  <path
     style="fill:#ffffff;fill-opacity:1;stroke:none"
     d="M 1.84375 2.625 L 1.84375 164.28125 L 134.40625 164.28125 L 134.40625 19.8125 C 141.22363 21.45868 149.90625 30.9375 149.90625 30.9375 C 149.90625 30.9375 153.44323 22.707299 155.28125 19.03125 C 145.23509 11.018241 137.61081 7.5010853 134.40625 6.25 L 134.40625 2.625 L 1.84375 2.625 z "
     transform="scale(0.8,0.8)"
     id="path6361" />
  <g
     id="#3c5997ff">
    <path
       d="M 0.86,1.91 C 35.56,1.81 108.82774,1.89 108.82774,1.89 l -0.0501,3.3393034 c 0,0 2.64732,1.2506966 4.09232,1.9306966 4.43,2.13 8.32,5.17 12.09,8.29 -1.65,3.42 -3.37,6.8 -5.07,10.2 -3.5,-3.13 -6.63,-7.84 -11.59,-8.49 -0.95911,37.938357 -0.24,114.57 -0.24,114.57 L 0.88,131.69 c 0,0 -0.0859861,-89.394222 -0.02,-129.78 m 95.61,2.77 c -9.06,1.99 -13.49,10.96 -17.29,18.5 -2.51,-1.24 -5,-2.49 -7.46,-3.81 -1.39,2.51 -2.73,5.05 -4.01,7.62 -1.57,0.21 -3.14,0.42 -4.71,0.61 5.35,-6.94 10.52,-14.02 15.95,-20.9 3.88,0.06 6.935318,0.06 10.815318,-0.03 0,0 0.708268,-0.7629375 1.930457,-1.1 C 77.095775,5.685 2.82,5.68 2.82,5.68 2.6100977,46.592156 2.85,128.37 2.85,128.37 l 41.427519,0.17393 0.575401,-1.432 -1.865248,-0.0613 c 0,0 -0.08267,-10.04563 -0.09767,-11.09063 -1.795,-0.705 -3.85,-1.5175 -5.89625,-1.85875 C 34.9475,113.76 32.91,113.89 31.15,115.07 c -1.55,3.86 -3.571794,12.24573 -3.571794,12.24573 L 8.88,127.32 c 0,0 8.12,-17.69 12.23,-26.51 2.05,1.48 4.16,2.93 6.54,3.86 -2.09,-2.51 -4.78,-4.51 -7.73,-5.87 -3.97,-0.48 -7.99,-0.21 -11.98,-0.51 -0.04,0.59 -0.13,1.79 -0.18,2.38 -1.23,1.49 -3.9412375,4.66083 -3.9412375,4.66083 L 3.9,99.7 c 0,0 2.7,-0.92 3.95,-1.6 C 6.93,98.08 5.1,98.04 4.18,98.02 3.94,82.67 3.6,67.32 3.77,51.96 c 4.45,-0.18 8.92,-0.27 13.37,-0.56 1.38,-0.16 2.97,-0.03 4.05,-1.09 3.73,-3.01 7.4,-6.11 11.35,-8.83 4.33,-3.2 10.4,-2.62 14.45,-6.34 3.98,-2.7 7.8,-6.88 13.04,-6.41 5.69,0.04 11.33,-0.77 16.96,-1.48 2.71,1.52 5.62,2.82 7.71,5.2 2.43,3.08 7.27,0.18 9.91,3.02 1.63,2.07 2.46,4.63 3.07,7.16 1.72,0.58 3.41,1.23 5.04,2.03 1.51,-2.41 2.8,-4.94 3.93,-7.55 -4.65,-2.37 -9.31,-4.72 -13.92,-7.17 2.76,-5.45 5.23,-12.56 11.72,-14.43 6.39,-0.81 10.98,4.74 15.37,8.48 1.31,-2.74 2.69,-5.46 4.08,-8.17 C 116.31,9.49 106.88,2.87 96.47,4.68 m -2.16,24.14 c 3.44,-1.67 10.22,-5.17 10.22,-5.17 L 104.34248,35.543817 105.05,35.93 c 0,0 0.34,-13.32 0.42,-19.96 -5.94,1.74 -8.75,7.69 -11.16,12.85 M 83.74,44.57 c 0.65,-0.01 1.93,-0.04 2.58,-0.05 1.33,2.44 2.02,5.15 2.95,7.76 -0.25,0.44 -0.73,1.31 -0.97,1.75 1.07,-0.12 2.09,-0.42 3.06,-0.9 -2.56,-6.08 -4.32,-12.51 -7.38,-18.36 -2.08,3 -0.81,6.55 -0.24,9.8 M 68.8,39.76 c -1.72,0.19 -3.44,0.43 -5.12,0.83 -2.21,-0.25 -4.43,-0.54 -6.64,-0.77 2.24,2.51 4.7,4.8 7.22,7.04 1.9,-0.12 3.8,-0.26 5.71,-0.41 -3.26,1.83 -4.22,5.55 -6.21,8.44 0.38,0.52 0.76,1.03 1.15,1.54 0.02,-3.23 3.77,-2.97 5.98,-3.32 -0.4,-2.25 -0.56,-4.52 -0.61,-6.79 1.26,-0.58 2.51,-1.18 3.75,-1.77 1.33,3.49 3.02,6.93 5.93,9.38 0.87,-0.01 2.63,-0.02 3.51,-0.03 -2.93,-1.34 -5.62,-3.43 -6.76,-6.55 -1.31,-3.85 -3.44,-7.3 -5.4,-10.84 -0.84,1.08 -1.68,2.16 -2.51,3.25 m 23.32,0.07 c 2.89,3.29 -1.31,8.59 2.87,10.87 0.81,-1.21 1.68,-2.4 2.35,-3.7 -0.63,-3.02 -1.81,-5.9 -3.1,-8.69 -1.03,-0.68 -1.43,1.05 -2.12,1.52 m 8.81,4.62 c -2.04,2.89 -3.35,6.24 -4.78,9.46 -0.03,2.37 0.51,4.7 0.92,7.03 -1.58,2.79 -3.46,5.43 -4.78,8.36 -0.87,3.79 0.25,7.82 -0.83,11.57 -1.78,2.28 -4.65,3.2 -7.12,4.52 0.17,2.23 0.37,4.47 0.23,6.71 0.18,2.06 -1.97,2.99 -3.25,4.17 -4.06,2.97 -7.69,6.71 -12.4,8.65 -4.76,0.55 -9.57,0.78 -14.23,2.05 2.03,6.67 4.89,20.28 4.89,20.28 L 54.252576,127.3444 53.72,128.27 c 0,0 34.55,0.19 51.82,0.14 0.17,-28.62 0.05,-86.367269 0.05,-86.367269 l -2.08324,3.627838 M 48.58,45.68 c -5.88,3.21 -11.21,7.28 -16.32,11.61 -2.91,3.09 -5.61,7.09 -5.25,11.52 3.18,2.94 8.01,1.81 11.92,1.47 5.13,-1.03 11.12,-1.34 14.8,-5.58 2.97,-3.06 6.06,-6.17 8.04,-10 1.82,-2.93 -0.12,-6.9 -2.8,-8.56 -3.31,-1.1 -7,-1.3 -10.39,-0.46 m 43.89,7.12 c 0.32,2.78 1.43,5.58 0.85,8.37 -3.07,0.45 -6.12,-0.8 -9.22,-0.58 -6.73,0.35 -13.68,1.95 -20.25,-0.43 0.25,1.05 0.76,3.15 1.02,4.2 4.37,-0.31 8.74,-0.57 13.12,-0.59 4.52,0 9.28,-0.44 13.44,1.73 1.37,-1.61 3.18,-3.13 3.6,-5.31 0.05,-2.67 0.19,-5.97 -2.56,-7.39 M 62.1,57.45 c -0.66,3.38 -2.6,6.26 -4.11,9.29 -4.52,8.96 -9.12,17.88 -13.62,26.84 -1.17,2.23 -2.29,4.64 -4.35,6.19 -4.29,3.38 -10.42,3.04 -14.46,6.84 -5.92,4.81 -5.12,15.14 1.32,19.15 1.2,-3.8 1.74,-7.82 3.43,-11.44 1.12,-1.41 3.08,-1.23 4.68,-1.29 4.48,-0.19 9.11,1.62 12.06,5.02 0.54,4.51 -1.87,8.79 -2.47,13.23 7.22,0.19 13.39,-7.25 11.58,-14.29 -0.4,-4.11 -3.73,-8.32 -1.52,-12.35 2.51,-4.92 4.93,-9.87 7.63,-14.69 C 59.59,88.88 56.13,88 55.15,84.9 54.05,81.79 55.56,78.4 58.26,76.67 57.45,71.86 57.6,65.28 63.33,63.75 63.32,62.28 63.35,60.8 63.41,59.32 62.98,58.69 62.54,58.07 62.1,57.45 m 25.54,8.03 c 0.05,2.24 0.17,4.47 0.27,6.71 C 84,71.87 80.09,70.71 76.16,71.4 c -4.78,0.64 -9.84,1.55 -14.52,-0.04 -1.09,-1.62 -0.08,-3.93 -0.52,-5.74 -2.26,2.76 -2.99,6.73 -1.84,10.09 0.68,1.39 2.38,1.31 3.69,1.38 7.38,-0.19 14.63,2.18 21.09,5.6 2.68,-0.98 6.61,-2.17 6.49,-5.71 -0.07,-3.83 0.81,-9.1 -2.91,-11.5 M 5.19,87.2 c -0.88,2.1 -0.34,4.36 -0.03,6.51 6.66,0.15 13.25,1.52 19.49,3.82 2.71,1.05 4.63,3.51 7.44,4.37 3.85,-0.55 7.72,-2.5 9.8,-5.88 1.46,-2.36 2.64,-4.87 4.02,-7.27 -0.45,-0.12 -1.36,-0.35 -1.82,-0.47 -0.52,-3.63 0.25,-7.54 -1.32,-10.95 -2.86,-0.66 -5.74,0.69 -7.7,2.73 -3.31,3.42 -5.05,7.95 -6.71,12.32 -0.91,-1.52 -1.83,-3.02 -2.74,-4.53 -1.28,0.8 -2.55,1.63 -3.81,2.46 C 19.29,83.46 17.15,76.34 13.2,70.15 8.99,74.98 7.19,81.25 5.19,87.2 m 50.39,-5.16 c 0.32,1.81 0.61,3.89 2.34,4.93 5.56,3.52 13.14,1.49 18.17,6.25 -3.57,1.27 -7.29,2.39 -11.11,2.34 -1.6,0.15 -3.46,-0.84 -4.88,0.22 -0.95,2.47 -1.47,5.08 -2.19,7.63 5.97,-0.21 12.61,-0.07 17.44,-4.17 5.05,-3.14 7.09,-9.48 6.76,-15.17 -1.12,-1.04 -2.42,-1.84 -3.67,-2.69 0.55,1.91 -0.24,3.69 -2.39,3.65 -3.26,0.65 -6.4,-0.58 -9.3,-1.9 -3.49,-1.63 -7.44,-1.31 -11.17,-1.09 z"
       id="path5091"
       inkscape:connector-curvature="0"
       style="fill:#3c5997"
       sodipodi:nodetypes="ccccccccccccccccccccccccsccccccccccccccccccccccccccccccccccccccccccccccccccccccccccccccccccccccccccccccccccccccccccccccccccccccccccccccccccccccccccccccccccccccccccccccccccccc" />
    <path
       fill="#3c5997"
       opacity="1.00"
       d=" M 3.83 6.75 C 8.27 6.74 12.72 6.76 17.17 6.68 C 22.68 17.59 28.22 28.49 33.44 39.54 C 32.29 40.28 31.14 41.02 30.00 41.77 C 21.26 31.15 12.59 20.48 3.79 9.91 C 3.80 9.12 3.82 7.54 3.83 6.75 Z"
       id="path5093" />
    <path
       fill="#3c5997"
       opacity="1.00"
       d=" M 28.94 6.75 C 32.72 6.74 36.51 6.74 40.30 6.72 C 40.85 16.77 40.78 26.85 41.20 36.91 C 39.81 37.29 38.42 37.67 37.04 38.05 C 34.36 27.61 31.66 17.18 28.94 6.75 Z"
       id="path5095" />
    <path
       d="M 51.523931,6.7803435 63.85,6.74 c 0,0 -5.81,12.94 -8.7,19.41 -1.47,4.1 -6.02,5.52 -9.18,7.99 1.95,-8.98 5.553931,-27.3596565 5.553931,-27.3596565 z"
       id="path5097"
       inkscape:connector-curvature="0"
       style="fill:#3c5997"
       sodipodi:nodetypes="ccccc" />
    <path
       fill="#3c5997"
       opacity="1.00"
       d=" M 3.82 26.64 C 11.63 32.32 19.04 38.52 26.77 44.31 C 25.49 45.30 24.21 46.30 22.93 47.28 C 16.55 44.25 10.02 41.53 3.72 38.31 C 3.83 34.42 3.82 30.53 3.82 26.64 Z"
       id="path5099" />
    <path
       d="m 3.77,47.89 c 3.09,0.57 6.17,1.16 9.2,1.98 C 9.99,50.45 6.7801718,50.59 3.7501718,50.76 3.7201718,50.04 3.81,48.61 3.77,47.89 z"
       id="path5101"
       inkscape:connector-curvature="0"
       style="fill:#3c5997"
       sodipodi:nodetypes="cccc" />
    <path
       fill="#3c5997"
       opacity="1.00"
       d=" M 97.35 54.59 C 99.75 54.53 102.16 54.47 104.56 54.45 C 104.52 59.27 104.57 64.10 104.45 68.93 C 101.30 68.21 98.14 67.56 94.98 66.93 C 96.09 65.01 97.40 63.17 98.10 61.05 C 98.07 58.88 97.64 56.73 97.35 54.59 Z"
       id="path5103" />
    <path
       fill="#3c5997"
       opacity="1.00"
       d=" M 93.43 79.36 C 97.12 80.96 100.76 82.66 104.43 84.30 C 104.64 90.86 104.50 97.42 104.52 103.98 C 98.31 99.24 92.16 94.42 85.90 89.73 C 85.82 88.51 85.75 87.29 85.67 86.08 C 88.80 84.59 92.45 83.07 93.43 79.36 Z"
       id="path5105" />
    <path
       fill="#3c5997"
       opacity="1.00"
       d=" M 67.24 106.73 C 71.58 105.56 75.07 102.69 78.57 100.03 C 86.15 109.12 93.74 118.22 101.32 127.32 C 93.53 127.38 85.75 127.30 77.97 127.36 C 74.22 120.58 71.09 113.47 67.24 106.73 Z"
       id="path5107" />
  </g>
</svg>
